fs/mail_warning_24_regular.svg

<svg viewBox="0 0 24 24" fill="none" xmlns="http://www.w3.org/2000/svg" height="1em" width="1em">
  <path d="M16.161 1.83006L12.1641 9.82835C11.6654 10.8262 12.3913 12 13.507 12H21.5008C22.6165 12 23.3424 10.8263 22.8437 9.82836L18.8468 1.83007C18.2938 0.723314 16.7141 0.723308 16.161 1.83006ZM18.0043 4.49564V7.49735C18.0043 7.77365 17.7803 7.99764 17.5039 7.99764C17.2276 7.99764 17.0035 7.77365 17.0035 7.49735V4.49564C17.0035 4.21934 17.2276 3.99536 17.5039 3.99536C17.7803 3.99536 18.0043 4.21934 18.0043 4.49564ZM17.5039 9.99878C17.2276 9.99878 17.0035 9.77479 17.0035 9.4985C17.0035 9.2222 17.2276 8.99821 17.5039 8.99821C17.7803 8.99821 18.0043 9.2222 18.0043 9.4985C18.0043 9.77479 17.7803 9.99878 17.5039 9.99878ZM5.25 4H13.9592L13.2098 5.5H5.25C4.33183 5.5 3.57881 6.20711 3.5058 7.10647L3.5 7.25V7.679L11.3925 11.8328C11.8255 12.5197 12.5871 13 13.5083 13H13.6101L12.3493 13.6637C12.1619 13.7623 11.9431 13.7764 11.7468 13.706L11.6507 13.6637L3.5 9.374V16.75C3.5 17.6682 4.20711 18.4212 5.10647 18.4942L5.25 18.5H18.75C19.6682 18.5 20.4212 17.7929 20.4942 16.8935L20.5 16.75V13H21.4995C21.6723 13 21.8395 12.9831 22 12.9511V16.75C22 18.483 20.6435 19.8992 18.9344 19.9949L18.75 20H5.25C3.51697 20 2.10075 18.6435 2.00514 16.9344L2 16.75V7.25C2 5.51697 3.35645 4.10075 5.06558 4.00514L5.25 4Z" fill="#212121"/>
</svg>

<svg viewBox="0 0 24 24" fill="none" xmlns="http://www.w3.org/2000/svg" height="1em" width="1em">
  <path d="m16.161 1.83-3.997 7.998A1.5 1.5 0 0 0 13.507 12h7.994a1.5 1.5 0 0 0 1.343-2.172L18.847 1.83c-.553-1.107-2.133-1.107-2.686 0Zm1.843 2.666v3.001a.5.5 0 0 1-1 0V4.496a.5.5 0 0 1 1 0Zm-.5 5.503a.5.5 0 1 1 0-1.001.5.5 0 0 1 0 1ZM5.25 4h8.71l-.75 1.5H5.25a1.75 1.75 0 0 0-1.744 1.606L3.5 7.25v.429l7.893 4.154A2.48 2.48 0 0 0 13.508 13h.102l-1.26.664a.75.75 0 0 1-.603.042l-.096-.042L3.5 9.374v7.376a1.75 1.75 0 0 0 1.606 1.744l.144.006h13.5a1.75 1.75 0 0 0 1.744-1.607l.006-.143V13h1c.172 0 .34-.017.5-.049v3.799a3.25 3.25 0 0 1-3.066 3.245L18.75 20H5.25a3.25 3.25 0 0 1-3.245-3.066L2 16.75v-9.5a3.25 3.25 0 0 1 3.066-3.245L5.25 4Z" fill="#212121"/>
</svg>
